logo.svg

<svg xmlns="http://www.w3.org/2000/svg" width="207" height="207" viewBox="0 0 207 207"><style type="text/css">.st0{fill:#f23b42;} .st1{fill:#C7332E;} .st2{fill:#FFFFFF;}</style><path class="st0" d="M178.1 0h-149.2c-16 0-28.9 12.9-28.9 28.9v149.3c0 15.9 12.9 28.8 28.9 28.8h149.3c15.9 0 28.9-12.9 28.9-28.9v-149.2c-.1-16-13-28.9-29-28.9z"/><path class="st1" d="M135.4 82.8h-37.7c-2.9 0-5.3-2.4-5.3-5.3v-30.8c0-2.9-2.4-5.3-5.3-5.3h-15.5c-2.9 0-5.3 2.4-5.3 5.3v113.3c0 2.9 2.4 5.3 5.3 5.3h63.8c2.9 0 5.3-2.3 5.3-5.2v-72c0-2.9-2.4-5.3-5.3-5.3zm-20.9 56.4h-22v-30.2h22v30.2z"/><path class="st2" d="M135.4 81.1h-37.7c-2.9 0-5.3-2.4-5.3-5.3v-30.8c0-2.9-2.4-5.3-5.3-5.3h-15.5c-2.9 0-5.3 2.4-5.3 5.3v113.3c0 2.9 2.4 5.3 5.3 5.3h63.8c2.9 0 5.3-2.3 5.3-5.2v-72c0-2.9-2.4-5.3-5.3-5.3zm-20.9 56.4h-22v-30.2h22v30.2z"/></svg>

<?xml version="1.0" encoding="utf-8"?>
<!-- Generator: Adobe Illustrator 19.2.1, SVG Export Plug-In . SVG Version: 6.00 Build 0)  -->
<svg version="1.1" id="レイヤー_1" xmlns="http://www.w3.org/2000/svg" xmlns:xlink="http://www.w3.org/1999/xlink" x="0px"
	 y="0px" width="207px" height="207px" viewBox="0 0 207 207" style="enable-background:new 0 0 207 207;" xml:space="preserve">
<style type="text/css">
	.st0{fill:#F94038;}
	.st1{fill:#C7332E;}
	.st2{fill:#FFFFFF;}
</style>
<path class="st0" d="M178.1,0H28.9C12.9,0,0,12.9,0,28.9v149.3C0,194.1,12.9,207,28.9,207h149.3c15.9,0,28.9-12.9,28.9-28.9V28.9
	C207,12.9,194.1,0,178.1,0L178.1,0z"/>
<path class="st1" d="M135.4,82.8l-37.7,0c-2.9,0-5.3-2.4-5.3-5.3l0-30.8c0-2.9-2.4-5.3-5.3-5.3H71.6c-2.9,0-5.3,2.4-5.3,5.3v113.3
	c0,2.9,2.4,5.3,5.3,5.3h63.8c2.9,0,5.3-2.3,5.3-5.2v-72C140.7,85.2,138.3,82.8,135.4,82.8z M114.5,139.2h-22V109h22V139.2z"/>
<path class="st2" d="M135.4,81.1l-37.7,0c-2.9,0-5.3-2.4-5.3-5.3l0-30.8c0-2.9-2.4-5.3-5.3-5.3H71.6c-2.9,0-5.3,2.4-5.3,5.3v113.3
	c0,2.9,2.4,5.3,5.3,5.3h63.8c2.9,0,5.3-2.3,5.3-5.2v-72C140.7,83.5,138.3,81.1,135.4,81.1z M114.5,137.5h-22v-30.2h22V137.5z"/>
</svg>
